remix/Editor/h-5.svg

<svg viewBox="0 0 24 24" fill="currentColor" xmlns="http://www.w3.org/2000/svg"><path d="M22 8V10H17.6769L17.2126 12.6358C17.5435 12.5472 17.8912 12.5 18.25 12.5C20.4591 12.5 22.25 14.2909 22.25 16.5C22.25 18.7091 20.4591 20.5 18.25 20.5C16.4233 20.5 14.8827 19.2756 14.4039 17.6027L16.3271 17.0519C16.5667 17.8881 17.3369 18.5 18.25 18.5C19.3546 18.5 20.25 17.6046 20.25 16.5C20.25 15.3954 19.3546 14.5 18.25 14.5C17.6194 14.5 17.057 14.7918 16.6904 15.2478L14.8803 14.3439L16 8H22ZM4 4V11H11V4H13V20H11V13H4V20H2V4H4Z"/></svg>

<svg viewBox="0 0 24 24" xmlns="http://www.w3.org/2000/svg"><path fill="none" d="M0 0h24v24H0Z"/><path d="M22 8v2h-4.323l-.47 2.63c.33-.09.67-.14 1.03-.14 2.21 0 4 1.79 4 4s-1.79 4-4 4c-1.83 0-3.37-1.23-3.846-2.9l1.92-.56c.24.83 1.01 1.44 1.92 1.44 1.1 0 2-.9 2-2 0-1.11-.9-2-2-2 -.63 0-1.2.29-1.56.74l-1.81-.91 1.12-6.35h6ZM4 4v7h7V4h2v16h-2v-7H4v7H2V4h2Z"/></svg>
